X:1264
T:(untitled hymn - played AABA)
C:John Malchair's Third Collection of Tunes
F:https://www.vwml.org/record/Malchair/3619/p126
F:www.vwml.org/topics/historic-dance-and-tune-books/Malchair
Z:Eric Conrad Feb 2020
N:NB1 Only notes are entered.  There is no clef, no key signature and no time signature.
N: Assuming key=G major (not G Mixolydian), 3/2 as barred, with top staff treble and bottom staff bass.
N:NB2 Tempo added
N:NB3 This note is stemless (i.e. whole note) in the MS.  But the cluster above it has a stem.
N:NB4 This two-note cluster has a stem in the MS, unlike the two notes in the treble staff.
N:NB5 This appears to be incomplete.  The tune might be AABA.
N:NB6 One time through the A strain added here for resolution.
M:3/2 % no time signature in MS, but barring is 3/2
Q:"NB2" 1/2=160
L:1/4
V:A clef=treble
V:B clef=bass octave=-1
%%staff {A B}
% clefs are omitted in the MS
K:G
V:A
"_NB1"[GB]4 G2 | [DGB]4 [DGd]2 | [CFA]3 [B,EG] [CFA]2 | [B,G]6 :|
[DB]4 [DA]2 | G2 [FA]4 | [Ac]4 [GB]2 | [FA]2 [GB]4 ||
"^NB6"[GB]4 G2 | [DGB]4 [DGd]2 | [CFA]3 [B,EG] [CFA]2 | [B,G]6 |]
V:B
% The second D in measure C is missing its stem,
% but it is written below the three note chord in the upper staff.
% The final note in the lower staff is a half note, as transcribed here. 
[GD]4 [GB]2 | G4 B,2 | D4 "_NB3"D2 | G,6 :|
G4 [FA]2 | [EB]2 [Dd]4 | [Fd]4 [Gd]2 | [Dd]2 "_NB4,5"[Gd]4 ||
[GD]4 [GB]2 | G4 B,2 | D4 "_NB3"D2 | G,6 |]


% Pages 127-130 are all missing

